X: 1
T: Mama's Pet
M: 4/4
L: 1/8
R: reel
K: Gmaj
G2BG EGDE|G2BG dGBA|G2BG EGDG|Bded B2AB:|
dBGB d2de|dBGB ~e3g|dBGB deBd|eged B2AB|
dBGB dGBd|g2bg aged|~G3B ~A3B|d2ed B2AB||
